icons/svg/text-blockquote_8.svg

<?xml version="1.0" encoding="UTF-8"?>
<svg width="8px" height="8px" viewBox="0 0 8 8" version="1.1" xmlns="http://www.w3.org/2000/svg" xmlns:xlink="http://www.w3.org/1999/xlink">
    <!-- Generator: Sketch 58 (84663) - https://sketch.com -->
    <title>text/blockquote_8</title>
    <desc>Created with Sketch.</desc>
    <g id="New-Icon" stroke="none" stroke-width="1" fill="none" fill-rule="evenodd">
        <g id="text/blockquote_8" fill="#171B1F">
            <path d="M7.4949,0.9997 C7.6759,1.0027 7.8419,1.1037 7.9269,1.2647 C8.0129,1.4247 8.0059,1.6187 7.9079,1.7717 C7.7009,2.0957 7.2689,2.9617 7.1309,3.6187 C7.7629,4.0527 8.0509,4.6647 7.9929,5.3577 C7.9149,6.3057 7.2689,6.9817 6.4239,6.9997 L6.4239,6.9997 L6.3909,6.9997 C5.9479,6.9997 5.5009,6.8037 5.1579,6.4587 C4.7129,6.0087 4.4789,5.3387 4.5019,4.5747 C4.5629,2.6127 5.9569,0.9717 7.4949,0.9997 Z M2.9949,0.9997 C3.1759,1.0027 3.3419,1.1037 3.4269,1.2647 C3.5129,1.4247 3.5059,1.6187 3.4079,1.7717 C3.2009,2.0957 2.7689,2.9617 2.6309,3.6187 C3.2629,4.0527 3.5509,4.6647 3.4929,5.3577 C3.4149,6.3057 2.7689,6.9817 1.9239,6.9997 L1.9239,6.9997 L1.8909,6.9997 C1.4479,6.9997 1.0009,6.8037 0.6579,6.4587 C0.2129,6.0087 -0.0211,5.3387 0.0019,4.5747 C0.0629,2.6127 1.4129,0.9717 2.9949,0.9997 Z M6.4689,2.4257 C5.9439,2.8797 5.5299,3.6647 5.5009,4.6047 C5.4829,5.2287 5.6909,5.5737 5.8679,5.7527 C6.0239,5.9097 6.2099,6.0017 6.4019,5.9977 C6.7719,5.9897 6.9669,5.6287 6.9969,5.2737 C7.0169,5.0247 6.9589,4.6767 6.5609,4.4347 C6.1009,4.1927 6.0869,3.8077 6.1189,3.5997 C6.1749,3.2277 6.3119,2.8097 6.4689,2.4257 Z M1.9689,2.4257 C1.4439,2.8797 1.0299,3.6647 1.0009,4.6047 C0.9829,5.2287 1.1909,5.5737 1.3679,5.7527 C1.5239,5.9097 1.7039,6.0017 1.9019,5.9977 C2.2719,5.9897 2.4669,5.6287 2.4969,5.2737 C2.5169,5.0247 2.4589,4.6767 2.0609,4.4347 C1.6009,4.1927 1.5869,3.8077 1.6189,3.5997 C1.6749,3.2277 1.8119,2.8097 1.9689,2.4257 Z" id="fill"></path>
        </g>
    </g>
</svg>

<svg width="8" height="8" xmlns="http://www.w3.org/2000/svg"><path d="M7.495 1a.5.5 0 01.413.772c-.207.324-.64 1.19-.777 1.847.632.434.92 1.046.862 1.739-.078.948-.724 1.624-1.57 1.642h-.032c-.443 0-.89-.196-1.233-.541-.445-.45-.68-1.12-.656-1.884C4.562 2.613 5.957.972 7.495 1zm-4.5 0a.5.5 0 01.413.772c-.207.324-.64 1.19-.777 1.847.632.434.92 1.046.862 1.739-.078.948-.724 1.624-1.57 1.642h-.032C1.448 7 1 6.804.658 6.459c-.445-.45-.68-1.12-.656-1.884C.062 2.613 1.412.972 2.995 1zm3.474 1.426c-.525.454-.94 1.239-.968 2.179-.018.624.19.969.367 1.148.156.157.342.249.534.245.37-.008.565-.37.595-.724a.852.852 0 00-.436-.84c-.46-.241-.474-.626-.442-.834.056-.372.193-.79.35-1.174zm-4.5 0c-.525.454-.94 1.239-.968 2.179-.018.624.19.969.367 1.148.156.157.336.249.534.245.37-.008.565-.37.595-.724a.852.852 0 00-.436-.84c-.46-.241-.474-.626-.442-.834.056-.372.193-.79.35-1.174z" fill="#171B1F" fill-rule="evenodd"/></svg>
